src/topics/icons/xero.svg

<svg height="256" preserveAspectRatio="xMidYMid" viewBox="0 0 256 256" width="256" xmlns="http://www.w3.org/2000/svg"><path d="m128.00285 256c70.690268 0 127.99715-57.311225 127.99715-128 0-70.7001556-57.301182-128-127.99715-128-70.6959678 0-128.00285 57.2998444-128.00285 128 0 70.688775 57.3068822 128 128.00285 128" fill="#1fc0e7"/><path d="m62.3672889 127.967763 21.7998222-21.902222c.7224889-.728178 1.1264-1.706667 1.1264-2.742045 0-2.161777-1.7521778-3.9139553-3.9082667-3.9139553-1.0524444 0-2.0366222.4096-2.7761777 1.1662223l-21.7884445 21.805511-21.8737778-21.845333c-.7395555-.728178-1.7180444-1.1264003-2.7591111-1.1264003-2.1617777 0-3.9082666 1.7521783-3.9082666 3.9082663 0 1.052445.4209777 2.048 1.1719111 2.787556l21.7998222 21.828267-21.7884444 21.845333c-.7623112.762311-1.1832889 1.752178-1.1832889 2.804622 0 2.161778 1.7521777 3.913956 3.9082666 3.913956 1.0410667 0 2.0195556-.398222 2.7591111-1.137778l21.8453334-21.856711 21.76 21.771378c.7736889.796444 1.7635555 1.223111 2.8330666 1.223111 2.1504 0 3.9025778-1.752178 3.9025778-3.913956 0-1.041066-.3982222-2.019555-1.1377778-2.759111l-21.7884444-21.879467zm129.5985781-.005689c0 3.925333 3.185777 7.111111 7.111111 7.111111 3.902578 0 7.088355-3.185778 7.088355-7.111111s-3.185777-7.111111-7.094044-7.111111-7.088356 3.185778-7.088356 7.111111zm-13.454223 0c0-11.349333 9.216-20.593778 20.559645-20.593778 11.320889 0 20.553955 9.244445 20.553955 20.593778s-9.227377 20.593778-20.553955 20.593778c-11.337956 0-20.559645-9.233067-20.559645-20.593778zm-8.0896 0c0 15.815111 12.856889 28.694756 28.649245 28.694756 15.792355 0 28.649244-12.868267 28.649244-28.689067 0-15.815111-12.856889-28.6947556-28.649244-28.6947556-15.798045 0-28.649245 12.8739556-28.649245 28.6947556zm-2.030933-28.1998221h-1.194667c-3.612444 0-7.094044 1.1377781-10.001066 3.3848891-.398222-1.7408-1.968356-3.072-3.834311-3.072-2.144711 0-3.868445 1.735111-3.868445 3.8912l.011378 48.327111c0 2.144711 1.763556 3.8912 3.896889 3.8912 2.1504 0 3.902578-1.746489 3.908267-3.902578v-29.718755c0-9.898667.910222-13.903645 9.375288-14.961778.796445-.096711 1.6384-.079645 1.649778-.079645 2.309689-.085333 3.959467-1.683911 3.959467-3.84 0-2.161777-1.763556-3.9139553-3.925333-3.9139553zm-75.0136888 23.4837331c0-.113778.0113778-.227555.0170667-.329955 2.2641778-8.988445 10.3879111-15.627378 20.0533331-15.627378 9.784889 0 17.976889 6.792533 20.138667 15.940267h-40.2147557zm48.2019558-.739555c-1.683911-7.981511-6.047289-14.5408-12.686222-18.750578-9.716623-6.1781335-22.539378-5.8368001-31.9146671.853333-7.6572445 5.444267-12.0775111 14.364445-12.0775111 23.552 0 2.304.2844444 4.630756.8533333 6.923378 2.8899556 11.377778 12.6634667 20.002133 24.3143109 21.430044 3.458845.420978 6.826667.227556 10.296889-.682666 3.003733-.739556 5.899378-1.9456 8.567467-3.663645 2.770489-1.780622 5.085866-4.135822 7.338666-6.951822.034134-.056889.079645-.096711.125156-.1536 1.558756-1.934222 1.268622-4.699022-.438044-6.007467-1.444978-1.109333-3.868445-1.558755-5.768534.887467-.4096.591645-.8704 1.194667-1.365333 1.792-1.518933 1.678222-3.401956 3.299556-5.654756 4.562489-2.878577 1.536-6.144 2.4064-9.614222 2.429156-11.3664-.130845-17.4421332-8.078223-19.6095999-13.744356-.3754667-1.063822-.6656-2.161778-.8704-3.299556l-.0568889-.597333h40.7893338c5.586488-.125155 8.590222-4.078933 7.759644-8.590222z" fill="#fff"/></svg>

<?xml version="1.0" encoding="UTF-8" standalone="no"?>
<svg width="256px" height="256px" viewBox="0 0 256 256" version="1.1" xmlns="http://www.w3.org/2000/svg" xmlns:xlink="http://www.w3.org/1999/xlink" preserveAspectRatio="xMidYMid">
	<g>
		<path d="M128.00285,256 C198.693118,256 256,198.688775 256,128 C256,57.2998444 198.698818,0 128.00285,0 C57.3068822,0 0,57.2998444 0,128 C0,198.688775 57.3068822,256 128.00285,256" fill="#1FC0E7"></path>
		<path d="M62.3672889,127.967763 L84.1671111,106.065541 C84.8896,105.337363 85.2935111,104.358874 85.2935111,103.323496 C85.2935111,101.161719 83.5413333,99.4095407 81.3852444,99.4095407 C80.3328,99.4095407 79.3486222,99.8191407 78.6090667,100.575763 L56.8206222,122.381274 L34.9468444,100.535941 C34.2072889,99.807763 33.2288,99.4095407 32.1877333,99.4095407 C30.0259556,99.4095407 28.2794667,101.161719 28.2794667,103.317807 C28.2794667,104.370252 28.7004444,105.365807 29.4513778,106.105363 L51.2512,127.93363 L29.4627556,149.778963 C28.7004444,150.541274 28.2794667,151.531141 28.2794667,152.583585 C28.2794667,154.745363 30.0316444,156.497541 32.1877333,156.497541 C33.2288,156.497541 34.2072889,156.099319 34.9468444,155.359763 L56.7921778,133.503052 L78.5521778,155.27443 C79.3258667,156.070874 80.3157333,156.497541 81.3852444,156.497541 C83.5356444,156.497541 85.2878222,154.745363 85.2878222,152.583585 C85.2878222,151.542519 84.8896,150.56403 84.1500444,149.824474 L62.3616,127.945007 L62.3672889,127.967763 Z M191.965867,127.962074 C191.965867,131.887407 195.151644,135.073185 199.076978,135.073185 C202.979556,135.073185 206.165333,131.887407 206.165333,127.962074 C206.165333,124.036741 202.979556,120.850963 199.071289,120.850963 C195.163022,120.850963 191.982933,124.036741 191.982933,127.962074 L191.965867,127.962074 Z M178.511644,127.962074 C178.511644,116.612741 187.727644,107.368296 199.071289,107.368296 C210.392178,107.368296 219.625244,116.612741 219.625244,127.962074 C219.625244,139.311407 210.397867,148.555852 199.071289,148.555852 C187.733333,148.555852 178.511644,139.322785 178.511644,127.962074 L178.511644,127.962074 Z M170.422044,127.962074 C170.422044,143.777185 183.278933,156.65683 199.071289,156.65683 C214.863644,156.65683 227.720533,143.788563 227.720533,127.967763 C227.720533,112.152652 214.863644,99.2730074 199.071289,99.2730074 C183.273244,99.2730074 170.422044,112.146963 170.422044,127.967763 L170.422044,127.962074 Z M168.391111,99.7622519 L167.196444,99.7622519 C163.584,99.7622519 160.1024,100.90003 157.195378,103.147141 C156.797156,101.406341 155.227022,100.075141 153.361067,100.075141 C151.216356,100.075141 149.492622,101.810252 149.492622,103.966341 L149.504,152.293452 C149.504,154.438163 151.267556,156.184652 153.400889,156.184652 C155.551289,156.184652 157.303467,154.438163 157.309156,152.282074 L157.309156,122.563319 C157.309156,112.664652 158.219378,108.659674 166.684444,107.601541 C167.480889,107.50483 168.322844,107.521896 168.334222,107.521896 C170.643911,107.436563 172.293689,105.837985 172.293689,103.681896 C172.293689,101.520119 170.530133,99.7679407 168.368356,99.7679407 L168.391111,99.7622519 Z M93.3774222,123.245985 C93.3774222,123.132207 93.3888,123.01843 93.3944889,122.91603 C95.6586667,113.927585 103.7824,107.288652 113.447822,107.288652 C123.232711,107.288652 131.424711,114.081185 133.586489,123.228919 L93.3717333,123.228919 L93.3774222,123.245985 Z M141.579378,122.50643 C139.895467,114.524919 135.532089,107.96563 128.893156,103.755852 C119.176533,97.5777185 106.353778,97.9190519 96.9784889,104.609185 C89.3212444,110.053452 84.9009778,118.97363 84.9009778,128.161185 C84.9009778,130.465185 85.1854222,132.791941 85.7543111,135.084563 C88.6442667,146.462341 98.4177778,155.086696 110.068622,156.514607 C113.527467,156.935585 116.895289,156.742163 120.365511,155.831941 C123.369244,155.092385 126.264889,153.886341 128.932978,152.168296 C131.703467,150.387674 134.018844,148.032474 136.271644,145.216474 C136.305778,145.159585 136.351289,145.119763 136.3968,145.062874 C137.955556,143.128652 137.665422,140.363852 135.958756,139.055407 C134.513778,137.946074 132.090311,137.496652 130.190222,139.942874 C129.780622,140.534519 129.319822,141.137541 128.824889,141.734874 C127.305956,143.413096 125.422933,145.03443 123.170133,146.297363 C120.291556,147.833363 117.026133,148.703763 113.555911,148.726519 C102.189511,148.595674 96.1137778,140.648296 93.9463111,134.982163 C93.5708444,133.918341 93.2807111,132.820385 93.0759111,131.682607 L93.0190222,131.085274 L133.808356,131.085274 C139.394844,130.960119 142.398578,127.006341 141.568,122.495052 L141.579378,122.50643 Z" fill="#FFFFFF"></path>
	</g>
</svg>
